wp-content/themes/ecoexplore/dist/images/leaderboard_091f0bff.svg

<svg xmlns="http://www.w3.org/2000/svg" width="54" height="59" viewBox="0 0 54 59">
  <g fill="none" transform="rotate(-20 25.336 18.993)">
    <circle cx="22.195" cy="21.563" r="10" fill="#688127"/>
    <circle cx="21" cy="19" r="10" fill="#FFFFFF"/>
    <path fill="#688127" d="M43.131874,50.6707925 L34.5727976,33.3784543 L39.84251,30.5925612 C40.9358388,30.0133815 41.4631961,28.7422662 41.1002242,27.5613556 L39.2445441,21.5280957 L41.1002242,15.4953858 C41.4631961,14.3150252 40.9358388,13.0428099 39.84251,12.4641801 L34.2511979,9.5077783 L31.2845369,3.93214193 C30.7042231,2.84198594 29.4288567,2.31450885 28.2456124,2.67807752 L22.195345,4.52947261 L16.1445259,2.67807752 C14.9601783,2.31340879 13.6859152,2.84198594 13.1056014,3.93214193 L10.1405953,9.5077783 L4.54983481,12.4641801 C3.45540276,13.0428099 2.92749376,14.3144752 3.29046568,15.4953858 L5.14724907,21.5280957 L3.29046568,27.5613556 C2.92749376,28.7417162 3.45540276,30.0133815 4.54983481,30.5925612 L9.81899552,33.3784543 L1.25881588,50.6707925 C1.14904169,50.8919038 1.18379432,51.1575675 1.34652489,51.343477 C1.50980709,51.5293866 1.76852112,51.5997902 2.0035151,51.5216862 L9.00754918,49.1890164 L11.4098937,56.1507239 C11.4639534,56.3063819 11.5764857,56.4312384 11.7193576,56.5005419 C11.7910694,56.5362938 11.8688491,56.5571948 11.9510418,56.5621451 C12.1992749,56.5780959 12.4309591,56.443889 12.5412849,56.2227777 L21.1400786,38.8495853 C21.1400786,38.8495853 21.2647467,38.5272688 22.1958966,38.5272688 C23.1270464,38.5272688 23.2522662,38.8506854 23.2522662,38.8506854 L31.8499566,56.2227777 C31.9602825,56.443889 32.1925183,56.5780959 32.4390965,56.5621451 C32.5218408,56.5566448 32.6007238,56.5362938 32.6718839,56.5005419 C32.8142042,56.4312384 32.9267366,56.3063819 32.9813478,56.1507239 L35.3836924,49.1890164 L42.3871748,51.5216862 C42.6227204,51.5997902 42.8814344,51.5293866 43.044165,51.343477 C43.2068956,51.1575675 43.2416482,50.8919038 43.131874,50.6707925 Z M7.85519609,21.5280957 C7.85519609,13.6307901 14.275055,7.23011132 22.195345,7.23011132 C30.1145316,7.23011132 36.5360454,13.6313401 36.5360454,21.5280957 C36.5360454,29.4248513 30.1145316,35.8266301 22.195345,35.8266301 C14.275055,35.8266301 7.85519609,29.4248513 7.85519609,21.5280957 Z"/>
    <path fill="#FFFFFF" d="M41.9365291,48.107367 L33.3774527,30.8150288 L38.647165,28.0291357 C39.7404938,27.449956 40.2678512,26.1788407 39.9048793,24.99793 L38.0491991,18.9646702 L39.9048793,12.9319603 C40.2678512,11.7515997 39.7404938,10.4793843 38.647165,9.90075462 L33.055853,6.94435277 L30.0891919,1.3687164 C29.5088781,0.27856041 28.2335118,-0.248916682 27.0502675,0.114651991 L21,1.96604708 L14.9491809,0.114651991 C13.7648333,-0.250016739 12.4905702,0.27856041 11.9102565,1.3687164 L8.9452503,6.94435277 L3.35448985,9.90075462 C2.26005781,10.4793843 1.73214881,11.7510497 2.09512072,12.9319603 L3.95190412,18.9646702 L2.09512072,24.99793 C1.73214881,26.1782907 2.26005781,27.449956 3.35448985,28.0291357 L8.62365057,30.8150288 L0.0634709205,48.107367 C-0.046303261,48.3284783 -0.0115506307,48.594142 0.15117994,48.7800515 C0.31446214,48.9659611 0.573176166,49.0363647 0.808170142,48.9582607 L7.81220423,46.6255909 L10.2145488,53.5872984 C10.2686084,53.7429564 10.3811407,53.8678128 10.5240127,53.9371164 C10.5957244,53.9728682 10.6735041,53.9937693 10.7556969,53.9987196 C11.0039299,54.0146704 11.2356141,53.8804635 11.3459399,53.6593521 L19.9447336,36.2861598 C19.9447336,36.2861598 20.0694018,35.9638433 21.0005516,35.9638433 C21.9317015,35.9638433 22.0569213,36.2872599 22.0569213,36.2872599 L30.6546117,53.6593521 C30.7649375,53.8804635 30.9971733,54.0146704 31.2437515,53.9987196 C31.3264959,53.9932193 31.4053788,53.9728682 31.476539,53.9371164 C31.6188593,53.8678128 31.7313916,53.7429564 31.7860029,53.5872984 L34.1883474,46.6255909 L41.1918299,48.9582607 C41.4273755,49.0363647 41.6860895,48.9659611 41.8488201,48.7800515 C42.0115506,48.594142 42.0463033,48.3284783 41.9365291,48.107367 Z M6.65985114,18.9646702 C6.65985114,11.0673645 13.0797101,4.66668579 21,4.66668579 C28.9191867,4.66668579 35.3407005,11.0679146 35.3407005,18.9646702 C35.3407005,26.8614257 28.9191867,33.2632045 21,33.2632045 C13.0797101,33.2632045 6.65985114,26.8614257 6.65985114,18.9646702 Z"/>
  </g>
</svg>

<svg xmlns="http://www.w3.org/2000/svg" width="54" height="59" viewBox="0 0 54 59"><g fill="none" transform="rotate(-20 25.336 18.993)"><circle cx="22.195" cy="21.563" r="10" fill="#688127"/><circle cx="21" cy="19" r="10" fill="#FFF"/><path fill="#688127" d="M43.132 50.67l-8.56-17.292 5.27-2.785A2.574 2.574 0 0 0 41.1 27.56l-1.855-6.033 1.855-6.033a2.574 2.574 0 0 0-1.257-3.03L34.25 9.507l-2.966-5.576a2.584 2.584 0 0 0-3.04-1.254l-6.05 1.851-6.05-1.85a2.582 2.582 0 0 0-3.04 1.253L10.14 9.507l-5.591 2.956a2.573 2.573 0 0 0-1.26 3.031l1.857 6.033-1.857 6.033a2.574 2.574 0 0 0 1.26 3.032l5.269 2.785-8.56 17.293a.61.61 0 0 0 .088.672.616.616 0 0 0 .657.179l7.004-2.333 2.402 6.962a.61.61 0 0 0 .541.411.615.615 0 0 0 .59-.34l8.6-17.372s.124-.323 1.055-.323c.931 0 1.056.324 1.056.324l8.598 17.372a.615.615 0 0 0 1.131-.072l2.403-6.962 7.003 2.333a.615.615 0 0 0 .657-.179.61.61 0 0 0 .088-.672zM7.855 21.529c0-7.897 6.42-14.298 14.34-14.298s14.341 6.401 14.341 14.298-6.421 14.299-14.34 14.299c-7.92 0-14.34-6.402-14.34-14.299z"/><path fill="#FFF" d="M41.937 48.107l-8.56-17.292 5.27-2.786a2.574 2.574 0 0 0 1.258-3.031l-1.856-6.033 1.856-6.033a2.574 2.574 0 0 0-1.258-3.031l-5.591-2.957-2.967-5.575A2.584 2.584 0 0 0 27.05.115L21 1.966 14.95.115a2.582 2.582 0 0 0-3.04 1.254L8.945 6.944l-5.59 2.957a2.573 2.573 0 0 0-1.26 3.031l1.857 6.033-1.857 6.033a2.574 2.574 0 0 0 1.26 3.031l5.269 2.786-8.56 17.292a.61.61 0 0 0 .087.673.616.616 0 0 0 .657.178l7.004-2.332 2.403 6.961a.61.61 0 0 0 .54.412.615.615 0 0 0 .59-.34l8.6-17.373s.124-.322 1.056-.322c.93 0 1.056.323 1.056.323l8.598 17.372a.615.615 0 0 0 1.131-.072l2.402-6.961 7.004 2.332a.615.615 0 0 0 .657-.178.61.61 0 0 0 .088-.673zM6.66 18.965c0-7.898 6.42-14.298 14.34-14.298s14.34 6.4 14.34 14.298c0 7.896-6.42 14.298-14.34 14.298S6.66 26.861 6.66 18.965z"/></g></svg>
